remix/Editor/double-quotes-l.svg

<svg viewBox="0 0 24 24" fill="currentColor" xmlns="http://www.w3.org/2000/svg"><path d="M4.58341 17.3211C3.55316 16.2274 3 15 3 13.0103C3 9.51086 5.45651 6.37366 9.03059 4.82318L9.92328 6.20079C6.58804 8.00539 5.93618 10.346 5.67564 11.822C6.21263 11.5443 6.91558 11.4466 7.60471 11.5105C9.40908 11.6778 10.8312 13.159 10.8312 15C10.8312 16.933 9.26416 18.5 7.33116 18.5C6.2581 18.5 5.23196 18.0095 4.58341 17.3211ZM14.5834 17.3211C13.5532 16.2274 13 15 13 13.0103C13 9.51086 15.4565 6.37366 19.0306 4.82318L19.9233 6.20079C16.588 8.00539 15.9362 10.346 15.6756 11.822C16.2126 11.5443 16.9156 11.4466 17.6047 11.5105C19.4091 11.6778 20.8312 13.159 20.8312 15C20.8312 16.933 19.2642 18.5 17.3312 18.5C16.2581 18.5 15.232 18.0095 14.5834 17.3211Z"/></svg>

<svg viewBox="0 0 24 24" xmlns="http://www.w3.org/2000/svg"><path fill="none" d="M0 0h24v24H0Z"/><path d="M4.583 17.321c-1.03-1.1-1.59-2.33-1.59-4.31 0-3.5 2.457-6.637 6.03-8.19l.89 1.37c-3.34 1.8-3.987 4.145-4.247 5.62 .53-.28 1.24-.375 1.92-.32 1.8.16 3.22 1.64 3.22 3.48v0c0 1.93-1.57 3.5-3.5 3.5 -1.08 0-2.099-.49-2.748-1.18Zm10 0c-1.03-1.1-1.59-2.33-1.59-4.31 0-3.5 2.45-6.637 6.03-8.19l.89 1.37c-3.34 1.8-3.987 4.145-4.247 5.62 .53-.28 1.24-.375 1.92-.32 1.8.16 3.22 1.64 3.22 3.48v0c0 1.93-1.57 3.5-3.5 3.5 -1.08 0-2.099-.49-2.75-1.18Z"/></svg>
